svgs/thin/list.svg

<svg xmlns="http://www.w3.org/2000/svg" viewBox="0 0 512 512"><!--! Font Awesome Pro 6.6.0 by @fontawesome - https://fontawesome.com License - https://fontawesome.com/license (Commercial License) Copyright 2024 Fonticons, Inc. --><path d="M40 64c-4.4 0-8 3.6-8 8l0 48c0 4.4 3.6 8 8 8l48 0c4.4 0 8-3.6 8-8l0-48c0-4.4-3.6-8-8-8L40 64zM16 72c0-13.3 10.7-24 24-24l48 0c13.3 0 24 10.7 24 24l0 48c0 13.3-10.7 24-24 24l-48 0c-13.3 0-24-10.7-24-24l0-48zM176 88l320 0c4.4 0 8 3.6 8 8s-3.6 8-8 8l-320 0c-4.4 0-8-3.6-8-8s3.6-8 8-8zm0 160l320 0c4.4 0 8 3.6 8 8s-3.6 8-8 8l-320 0c-4.4 0-8-3.6-8-8s3.6-8 8-8zm0 160l320 0c4.4 0 8 3.6 8 8s-3.6 8-8 8l-320 0c-4.4 0-8-3.6-8-8s3.6-8 8-8zM88 224l-48 0c-4.4 0-8 3.6-8 8l0 48c0 4.4 3.6 8 8 8l48 0c4.4 0 8-3.6 8-8l0-48c0-4.4-3.6-8-8-8zM40 208l48 0c13.3 0 24 10.7 24 24l0 48c0 13.3-10.7 24-24 24l-48 0c-13.3 0-24-10.7-24-24l0-48c0-13.3 10.7-24 24-24zm0 176c-4.4 0-8 3.6-8 8l0 48c0 4.4 3.6 8 8 8l48 0c4.4 0 8-3.6 8-8l0-48c0-4.4-3.6-8-8-8l-48 0zm-24 8c0-13.3 10.7-24 24-24l48 0c13.3 0 24 10.7 24 24l0 48c0 13.3-10.7 24-24 24l-48 0c-13.3 0-24-10.7-24-24l0-48z"/></svg>

<svg xmlns="http://www.w3.org/2000/svg" viewBox="0 0 512 512"><!--! Font Awesome Pro 6.4.0 by @fontawesome - https://fontawesome.com License - https://fontawesome.com/license (Commercial License) Copyright 2023 Fonticons, Inc. --><path d="M40 64c-4.4 0-8 3.6-8 8v48c0 4.4 3.6 8 8 8H88c4.4 0 8-3.6 8-8V72c0-4.4-3.6-8-8-8H40zM16 72c0-13.3 10.7-24 24-24H88c13.3 0 24 10.7 24 24v48c0 13.3-10.7 24-24 24H40c-13.3 0-24-10.7-24-24V72zM176 88H496c4.4 0 8 3.6 8 8s-3.6 8-8 8H176c-4.4 0-8-3.6-8-8s3.6-8 8-8zm0 160H496c4.4 0 8 3.6 8 8s-3.6 8-8 8H176c-4.4 0-8-3.6-8-8s3.6-8 8-8zm0 160H496c4.4 0 8 3.6 8 8s-3.6 8-8 8H176c-4.4 0-8-3.6-8-8s3.6-8 8-8zM88 224H40c-4.4 0-8 3.6-8 8v48c0 4.4 3.6 8 8 8H88c4.4 0 8-3.6 8-8V232c0-4.4-3.6-8-8-8zM40 208H88c13.3 0 24 10.7 24 24v48c0 13.3-10.7 24-24 24H40c-13.3 0-24-10.7-24-24V232c0-13.3 10.7-24 24-24zm0 176c-4.4 0-8 3.6-8 8v48c0 4.4 3.6 8 8 8H88c4.4 0 8-3.6 8-8V392c0-4.4-3.6-8-8-8H40zm-24 8c0-13.3 10.7-24 24-24H88c13.3 0 24 10.7 24 24v48c0 13.3-10.7 24-24 24H40c-13.3 0-24-10.7-24-24V392z"/></svg>
